dist/img/svg/clock.svg

<svg width="18" height="18" viewBox="0 0 18 18" fill="none" xmlns="http://www.w3.org/2000/svg">
<path d="M6.375 14.25H11.625C13.3725 14.25 14.25 13.3725 14.25 11.625V6.375C14.25 4.6275 13.3725 3.75 11.625 3.75H6.375C4.6275 3.75 3.75 4.6275 3.75 6.375V11.625C3.75 13.3725 4.6275 14.25 6.375 14.25Z" stroke="currentColor" stroke-width="1.5" stroke-miterlimit="10" stroke-linecap="round" stroke-linejoin="round"/>
<path d="M12 1.5H6" stroke="currentColor" stroke-width="1.5" stroke-miterlimit="10" stroke-linecap="round" stroke-linejoin="round"/>
<path d="M12 16.5H6" stroke="currentColor" stroke-width="1.5" stroke-miterlimit="10" stroke-linecap="round" stroke-linejoin="round"/>
<path d="M8.625 7.125V9.375H10.875" stroke="currentColor" stroke-width="1.5" stroke-miterlimit="10" stroke-linecap="round" stroke-linejoin="round"/>
</svg>

<svg width="18" height="18" viewBox="0 0 18 18" fill="none" xmlns="http://www.w3.org/2000/svg"><path d="M6.375 14.25h5.25c1.748 0 2.625-.877 2.625-2.625v-5.25c0-1.747-.877-2.625-2.625-2.625h-5.25c-1.747 0-2.625.878-2.625 2.625v5.25c0 1.748.878 2.625 2.625 2.625zM12 1.5H6m6 15H6" stroke="currentColor" stroke-width="1.5" stroke-miterlimit="10" stroke-linecap="round" stroke-linejoin="round"/><path d="M8.625 7.125v2.25h2.25" stroke="currentColor" stroke-width="1.5" stroke-miterlimit="10" stroke-linecap="round" stroke-linejoin="round"/></svg>
